packages/components/src/telekom/icons/weather/moon-cloudy-b/selected.svg

<?xml version="1.0" encoding="UTF-8"?>
<svg width="24px" height="24px" viewBox="0 0 24 24" version="1.1" xmlns="http://www.w3.org/2000/svg" xmlns:xlink="http://www.w3.org/1999/xlink">
    <title>icon/weather/moon-cloudy-b/selected</title>
    <g id="icon/weather/moon-cloudy-b/selected" stroke="none" stroke-width="1" fill="none" fill-rule="evenodd">
        <path d="M11.4098,7.2517 C13.9823,7.2517 16.2488,8.8547 17.1293,11.2672 C18.6388,12.0622 19.6003,13.6442 19.6003,15.3692 C19.6003,17.8517694 17.6498467,19.884416 15.210546,19.9954253 L15.0003,20.0002 L5.0003,20.0002 C2.6843,20.0002 0.8003,18.1037 0.8003,15.7722 C0.8003,14.2427 1.6263,12.8397 2.9343,12.0942 C3.0458,10.1022 4.6913,8.5167 6.6978,8.5167 C6.9928,8.5167 7.2873,8.5527 7.5778,8.6237 C8.6633,7.7362 10.0113,7.2517 11.4098,7.2517 Z M18.6613,3.6802 C19.2948,3.5137 19.9323,3.5162 20.5283,3.6582 C19.1573,4.3177 18.3998,5.8742 18.8003,7.4002 C19.2503,9.1137 20.9913,10.1422 22.7053,9.7222 C22.2028,10.3867 21.4843,10.8962 20.6163,11.1242 C20.0903,11.2622 19.5613,11.2827 19.0563,11.2052 C18.7643,10.9187 18.4423,10.6592 18.0888,10.4362 C17.5783,9.2682 16.7783,8.2762 15.7948,7.5322 C15.7338,5.7747 16.8883,4.1457 18.6613,3.6802 Z" id="Shape" fill="#262626"></path>
    </g>
</svg>

<svg width="24" height="24" xmlns="http://www.w3.org/2000/svg"><path d="M11.41 7.252a6.077 6.077 0 015.72 4.015 4.644 4.644 0 012.47 4.102c0 2.483-1.95 4.515-4.39 4.626L15 20H5C2.684 20 .8 18.104.8 15.772c0-1.53.826-2.932 2.134-3.678.112-1.992 1.757-3.577 3.764-3.577.295 0 .59.036.88.107a6.044 6.044 0 013.832-1.372zM18.66 3.68a3.83 3.83 0 011.867-.022 3.24 3.24 0 002.177 6.064 3.832 3.832 0 01-3.649 1.483 5.804 5.804 0 00-.967-.769 7.32 7.32 0 00-2.294-2.904A3.847 3.847 0 0118.66 3.68z" fill="#000" fill-rule="evenodd"/></svg>
